X: 3
T: Union Quick Step  v.1
P: Piffero primo a0084
O: american veteran fifer
F: http://ancients.sudburymuster.org/mus/ssp/pdf/brandywF.pdf
Z: 2019 John Chambers <jc:trillian.mit.edu>
M: 2/4
L: 1/16
K: G
(3ABc |\
d2d2 d2cd | ecAc e2e2 | dcBc Acec | d2df a2af |\
d2d2 d2cd | ecAc e2e2 | dcBc Acec | d2f2 d2 :|
|: A2 |\
g4 gdef | g4 g2f2 | e2e2 e2de | f4 f2af |\
d2d2 d2cd | ecAc e2e2 | dcBc Acec | d2f2 d2 :|


